X:1
T: The Queen of the Fair
C:
R:Jig
Q:180
K:D
M:6/8
L:1/16
AG|F2E2F2 D2A,2A,2|D2F2A2 d2A2F2|G2d2G2 F2G2A2|B2G2E2 E2F2G2|
F2E2F2 D2A,2A,2|D2F2(3ABc d2A2F2|G2d2G2 E2F2G2|1F2D2D2 D4AG:|2F2D2D2 D4(3bag|
f2d2f2 e2c2e2|d2A2G2 F2E2D2|D2F2(3ABc d2A2F2|G2B2G2 E2F2G2|
f2d2a2 e2c2e2|d2A2G2 F2E2D2|D2F2d2 E2F2G2|1F2D2D2 D4(3bag:|2F2D2D2 D4||
